src/assets/brand/volteq-logo.svg

<svg version="1.1" id="Layer_1" xmlns="http://www.w3.org/2000/svg" xmlns:xlink="http://www.w3.org/1999/xlink" x="0px" y="0px"
	 viewBox="0 0 1280 640" enable-background="new 0 0 1280 640" xml:space="preserve">
<path fill="#25C3A1" opacity="1.000000" stroke="none"
	d="
M148.466599,160.724136
	C175.579269,160.357071 194.384521,189.316040 181.787720,212.914047
	C169.491608,235.948761 182.978729,264.078308 198.871368,274.167999
	C202.427628,276.425751 206.654984,278.125397 210.793045,278.884521
	C232.957260,282.950378 246.528061,305.336334 238.515396,326.503967
	C230.190430,348.496735 236.006393,367.102295 250.834122,383.605743
	C263.752686,397.984314 283.374329,397.865540 296.702301,383.904510
	C308.920288,371.106171 315.468231,356.138428 313.049469,338.105377
	C312.634735,335.013184 311.730499,331.900909 310.533447,329.012970
	C301.207275,306.513062 314.745850,281.960510 338.875244,278.794495
	C347.374695,277.679291 354.288483,272.683014 359.622223,265.887726
	C369.858795,252.846115 375.285522,238.501709 370.937744,221.735306
	C370.320923,219.356583 369.163910,217.084976 368.035187,214.877182
	C359.558014,198.295853 363.661469,179.394516 378.196411,168.332779
	C392.950653,157.104156 413.524567,157.818466 426.747772,170.636169
	C436.996704,180.570801 440.673187,193.092072 436.677765,206.824966
	C432.628204,220.743790 423.287323,230.472549 408.725372,233.095932
	C398.256165,234.981995 389.840851,239.413147 383.501953,247.638519
	C375.931488,257.461975 370.548187,268.399963 371.223938,281.139374
	C371.507172,286.478760 372.811615,292.106445 375.069916,296.940552
	C385.988403,320.312439 372.529999,345.736603 346.864655,349.514313
	C339.236267,350.637146 333.223297,354.803253 328.099121,360.145355
	C314.768402,374.042938 307.606049,390.323853 310.201385,409.956421
	C310.608368,413.035339 311.861115,416.027008 312.911285,418.992249
	C318.209991,433.954010 316.021667,447.654175 305.404205,459.491974
	C294.630829,471.503510 281.092407,475.536957 265.172394,472.502808
	C242.731934,468.225952 228.863022,445.233490 234.046463,424.969513
	C235.602539,418.886292 238.473907,412.892242 238.740173,406.770233
	C239.754288,383.452759 230.038467,365.253540 210.369751,352.639862
	C207.688110,350.920105 204.205231,350.078613 200.982391,349.633057
	C176.874908,346.300201 161.451828,320.610809 172.944153,298.335815
	C184.491486,275.954132 171.690704,246.895767 152.690109,236.477798
	C150.412720,235.229111 147.736801,234.363693 145.158737,234.061371
	C124.787987,231.672531 110.600540,215.448105 111.329689,195.147110
	C112.001884,176.431854 128.092529,161.344620 148.466599,160.724136
z"/>
<path fill="#FFFFFF" opacity="1.000000" stroke="none"
	d="
M956.999878,397.189240
	C963.499390,397.186981 969.500061,397.112549 975.498169,397.203644
	C981.038574,397.287781 984.629272,400.639282 984.701111,405.569061
	C984.775574,410.681885 981.422546,413.870850 975.628418,413.879456
	C941.464783,413.930145 907.300476,414.048950 873.137695,413.886047
	C856.295044,413.805756 841.326843,398.710876 841.102966,381.679230
	C840.855530,362.850769 840.821472,344.013977 841.077576,325.186035
	C841.298279,308.965515 856.472595,294.188446 873.042297,294.057983
	C899.371582,293.850616 925.704956,293.836487 952.034119,294.046112
	C969.710938,294.186829 984.030090,308.648956 984.333801,326.235321
	C984.483398,334.898773 984.434814,343.567352 984.354187,352.232483
	C984.288757,359.261841 981.363831,362.068787 974.183411,362.075775
	C937.186401,362.111755 900.189453,362.115540 863.192444,362.130463
	C861.385681,362.131195 859.578918,362.130554 857.405090,362.130554
	C857.405090,369.519714 856.817017,376.669983 857.556091,383.680267
	C858.451172,392.169952 865.007568,397.137573 874.005981,397.154755
	C901.503845,397.207275 929.001953,397.183441 956.999878,397.189240
M901.499817,345.691162
	C923.607056,345.691162 945.714294,345.691162 967.572510,345.691162
	C967.974976,344.916962 968.253113,344.630035 968.255493,344.340820
	C968.303955,338.514069 968.370056,332.686737 968.332397,326.860138
	C968.272827,317.638367 962.142151,310.658051 952.997986,310.578186
	C926.025452,310.342590 899.048340,310.392761 872.075195,310.605164
	C864.779175,310.662628 858.032227,316.752014 857.398315,323.952606
	C856.778381,330.994781 857.263428,338.134216 857.263428,345.691071
	C871.929871,345.691071 886.214844,345.691071 901.499817,345.691162
z"/>
<path fill="#FFFFFF" opacity="1.000000" stroke="none"
	d="
M1075.004150,294.011749
	C1097.327759,294.019775 1119.152222,294.027893 1140.976807,294.034637
	C1160.403809,294.040619 1175.291382,308.379211 1175.568604,327.814606
	C1175.818237,345.303314 1175.896484,362.804413 1175.523071,380.288788
	C1175.260986,392.556366 1169.632202,402.262390 1158.710693,409.253967
	C1164.438965,417.138550 1170.124756,424.827271 1175.654419,432.626740
	C1179.053833,437.421661 1178.369385,442.163727 1174.177490,444.746399
	C1170.462402,447.035309 1166.250366,446.348785 1163.594238,442.735657
	C1157.382080,434.285461 1151.167969,425.831055 1145.226685,417.191315
	C1143.496948,414.675964 1141.725952,413.797455 1138.726562,413.814667
	C1114.903809,413.951538 1091.079956,413.890533 1067.256470,413.934021
	C1047.220215,413.970612 1032.412598,399.572296 1032.242188,379.539856
	C1032.092041,361.881683 1032.151367,344.220886 1032.234131,326.561829
	C1032.313354,309.635071 1047.434082,294.438324 1064.509521,294.009430
	C1067.839233,293.925781 1071.173218,294.006378 1075.004150,294.011749
M1084.500610,310.488953
	C1078.009155,310.477661 1071.514648,310.333557 1065.027100,310.486359
	C1055.423706,310.712524 1048.360840,317.873199 1048.331787,327.352814
	C1048.278320,344.829651 1048.253784,362.307129 1048.344238,379.783691
	C1048.400146,390.597015 1055.023438,397.156219 1065.856689,397.176147
	C1091.156738,397.222656 1116.457275,397.210449 1141.757324,397.150360
	C1152.804077,397.124146 1159.422607,390.491547 1159.468506,379.396362
	C1159.537964,362.586548 1159.554443,345.775818 1159.455566,328.966278
	C1159.384399,316.863281 1152.888062,310.478119 1140.927002,310.475708
	C1122.451538,310.472015 1103.976196,310.483978 1084.500610,310.488953
z"/>
<path fill="#FFFFFF" opacity="1.000000" stroke="none"
	d="
M428.923096,365.999939
	C428.927246,352.841553 428.890503,340.182953 428.944794,327.524750
	C429.026184,308.559357 443.511353,294.089813 462.568726,294.035461
	C487.885376,293.963226 513.202515,293.962799 538.519226,294.016296
	C557.367126,294.056122 572.031860,308.803009 572.048828,327.591736
	C572.064514,344.913513 572.113098,362.235382 572.069580,379.557007
	C572.019714,399.397430 557.488464,413.878082 537.725159,413.888702
	C512.907898,413.902039 488.090546,413.893219 463.273376,413.946075
	C444.256287,413.986572 429.611298,400.006042 428.958618,380.990021
	C428.793030,376.165253 428.926788,371.330200 428.923096,365.999939
M483.499939,397.192383
	C501.817657,397.180267 520.135559,397.215454 538.453003,397.138336
	C549.491577,397.091858 556.080566,390.428070 556.105103,379.392670
	C556.142578,362.573761 556.104980,345.754700 556.120056,328.935699
	C556.130798,316.974121 549.727356,310.492188 537.621826,310.409576
	C529.130005,310.351624 520.637146,310.450287 512.144775,310.464081
	C495.326019,310.491425 478.506012,310.391052 461.689056,310.575897
	C452.389008,310.678101 445.086945,317.666748 445.039703,326.339233
	C444.940887,344.488708 444.932861,362.639771 445.063232,380.788940
	C445.131866,390.336121 451.979004,397.033417 461.518036,397.166473
	C468.510773,397.264038 475.505859,397.190216 483.499939,397.192383
z"/>
<path fill="#FFFFFF" opacity="1.000000" stroke="none"
	d="
M761.000000,294.018524
	C769.994751,294.011841 778.489746,293.983948 786.984375,294.020569
	C793.016418,294.046600 797.052795,297.690765 796.858704,302.830627
	C796.680115,307.558197 793.031677,310.423889 787.029358,310.433167
	C768.374634,310.461975 749.719971,310.457001 731.065247,310.464752
	C728.422363,310.465851 725.779480,310.464935 722.546326,310.464935
	C722.454468,312.530029 722.310425,314.274017 722.309387,316.018036
	C722.296631,336.838318 722.295593,357.658569 722.312012,378.478851
	C722.320862,389.603394 729.543091,397.034454 740.624573,397.109528
	C756.114014,397.214447 771.604492,397.169952 787.094543,397.173035
	C790.835388,397.173798 794.469727,398.058716 795.584595,401.888214
	C796.327576,404.440277 796.350708,408.002075 795.060608,410.112183
	C793.862122,412.072571 790.514771,413.718353 788.081238,413.763519
	C771.430603,414.072449 754.762390,414.264526 738.117371,413.827942
	C720.506714,413.366028 706.162048,398.065613 706.086914,379.889160
	C705.927185,341.246857 706.023254,302.603455 706.051514,263.960480
	C706.055847,258.051544 709.536072,254.245926 714.531372,254.421051
	C719.228088,254.585709 722.233643,258.291107 722.266357,264.189941
	C722.320679,273.993256 722.281128,283.797089 722.281128,294.024872
	C735.232971,294.024872 747.866516,294.024872 761.000000,294.018524
z"/>
<path fill="#FFFFFF" opacity="1.000000" stroke="none"
	d="
M666.271851,402.084778
	C668.123108,409.340881 665.087524,413.518982 658.201599,413.867432
	C646.650696,414.451874 635.605835,413.550354 626.408203,405.190887
	C618.886047,398.354248 615.256531,389.699707 615.188721,379.943939
	C614.919006,341.131836 615.054932,302.316864 615.083740,263.502930
	C615.087646,258.261597 617.544006,255.093826 621.918823,254.583878
	C626.233887,254.080887 629.492493,255.808380 630.902222,260.002747
	C631.463074,261.671417 631.264404,263.624420 631.265320,265.447998
	C631.283997,302.596619 631.264893,339.745209 631.291626,376.893829
	C631.301514,390.700714 637.936584,397.016357 651.914856,397.271545
	C656.083435,397.347687 660.251892,398.491882 664.367615,399.389099
	C665.088989,399.546356 665.547607,400.908936 666.271851,402.084778
z"/>
</svg>

<svg version="1.2" xmlns="http://www.w3.org/2000/svg" viewBox="0 0 1280 640" width="1280" height="640"><style>.a{fill:#fff}</style><path fill-rule="evenodd" class="a" d="m148.5 160.7c27.1-0.3 45.9 28.6 33.3 52.2-12.3 23 1.2 51.2 17.1 61.3 3.5 2.2 7.8 3.9 11.9 4.7 22.2 4 35.7 26.4 27.7 47.6-8.3 22-2.5 40.6 12.3 57.1 13 14.4 32.6 14.3 45.9 0.3 12.2-12.8 18.8-27.8 16.4-45.8-0.5-3.1-1.4-6.2-2.6-9.1-9.3-22.5 4.3-47 28.4-50.2 8.5-1.1 15.4-6.1 20.7-12.9 10.3-13 15.7-27.4 11.3-44.2-0.6-2.3-1.7-4.6-2.9-6.8-8.4-16.6-4.3-35.5 10.2-46.6 14.8-11.2 35.3-10.5 48.6 2.3 10.2 10 13.9 22.5 9.9 36.2-4.1 13.9-13.4 23.7-28 26.3-10.4 1.9-18.9 6.3-25.2 14.5-7.6 9.9-12.9 20.8-12.3 33.5 0.3 5.4 1.6 11 3.9 15.8 10.9 23.4-2.6 48.8-28.2 52.6-7.7 1.1-13.7 5.3-18.8 10.6-13.3 13.9-20.5 30.2-17.9 49.9 0.4 3 1.7 6 2.7 9 5.3 14.9 3.1 28.6-7.5 40.5-10.8 12-24.3 16-40.2 13-22.5-4.3-36.3-27.3-31.1-47.5 1.5-6.1 4.4-12.1 4.6-18.2 1.1-23.4-8.7-41.6-28.3-54.2-2.7-1.7-6.2-2.5-9.4-3-24.1-3.3-39.5-29-28.1-51.3 11.6-22.4-1.2-51.4-20.2-61.8-2.3-1.3-5-2.1-7.5-2.4-20.4-2.4-34.6-18.7-33.9-39 0.7-18.7 16.8-33.8 37.2-34.4zm808.5 236.5c6.5 0 12.5-0.1 18.5 0 5.5 0.1 9.1 3.4 9.2 8.4 0.1 5.1-3.3 8.3-9.1 8.3-34.1 0-68.3 0.2-102.5 0-16.8-0.1-31.8-15.2-32-32.2-0.2-18.8-0.3-37.7 0-56.5 0.2-16.2 15.4-31 31.9-31.1q39.5-0.4 79 0c17.7 0.1 32 14.6 32.3 32.1 0.2 8.7 0.1 17.4 0.1 26-0.1 7.1-3 9.9-10.2 9.9q-55.5 0-111 0c-1.8 0-3.6 0-5.8 0 0 7.4-0.6 14.6 0.2 21.6 0.9 8.5 7.4 13.4 16.4 13.5 27.5 0 55 0 83 0zm-55.5-51.5c22.1 0 44.2 0 66.1 0 0.4-0.8 0.6-1.1 0.7-1.4 0-5.8 0.1-11.6 0-17.4 0-9.3-6.2-16.2-15.3-16.3-27-0.3-54-0.2-80.9 0-7.3 0.1-14.1 6.1-14.7 13.3-0.6 7.1-0.1 14.2-0.1 21.8 14.6 0 28.9 0 44.2 0zm173.5-51.7c22.3 0 44.2 0 66 0 19.4 0 34.3 14.4 34.6 33.8 0.2 17.5 0.3 35-0.1 52.5-0.2 12.3-5.9 22-16.8 28.9 5.7 7.9 11.4 15.6 17 23.4 3.4 4.8 2.7 9.6-1.5 12.1-3.7 2.3-8 1.6-10.6-2-6.2-8.4-12.4-16.9-18.4-25.5-1.7-2.5-3.5-3.4-6.5-3.4-23.8 0.1-47.6 0.1-71.4 0.1-20.1 0.1-34.9-14.3-35.1-34.4-0.1-17.6 0-35.3 0-52.9 0.1-17 15.2-32.2 32.3-32.6 3.3-0.1 6.7 0 10.5 0zm9.5 16.5c-6.5 0-13-0.2-19.5 0-9.6 0.2-16.6 7.4-16.7 16.9 0 17.4-0.1 34.9 0 52.4 0.1 10.8 6.7 17.4 17.6 17.4q37.9 0 75.9 0c11-0.1 17.6-6.7 17.7-17.8q0.1-25.2 0-50.4c-0.1-12.1-6.6-18.5-18.6-18.5-18.4 0-36.9 0-56.4 0zm-655.6 55.5c0-13.2 0-25.8 0-38.5 0.1-18.9 14.6-33.4 33.7-33.5q37.9-0.1 75.9 0c18.9 0.1 33.5 14.8 33.5 33.6 0.1 17.3 0.1 34.6 0.1 52-0.1 19.8-14.6 34.3-34.4 34.3-24.8 0-49.6 0-74.4 0-19 0.1-33.7-13.9-34.3-32.9-0.2-4.8-0.1-9.7-0.1-15zm54.6 31.2c18.3 0 36.6 0 54.9-0.1 11.1 0 17.7-6.7 17.7-17.7 0-16.8 0-33.6 0-50.5 0-11.9-6.4-18.4-18.5-18.5-8.5-0.1-17 0.1-25.5 0.1-16.8 0-33.6-0.1-50.4 0.1-9.3 0.1-16.6 7.1-16.7 15.7q-0.1 27.3 0.1 54.5c0 9.5 6.9 16.2 16.4 16.4 7 0.1 14 0 22 0zm277.5-103.2c9 0 17.5 0 26 0 6 0 10.1 3.7 9.9 8.8-0.2 4.8-3.9 7.6-9.9 7.6q-28 0.1-55.9 0.1c-2.7 0-5.3 0-8.6 0-0.1 2-0.2 3.8-0.2 5.5q0 31.3 0 62.5c0 11.1 7.2 18.5 18.3 18.6 15.5 0.1 31 0.1 46.5 0.1 3.7 0 7.4 0.9 8.5 4.7 0.7 2.5 0.7 6.1-0.5 8.2-1.2 2-4.6 3.6-7 3.7-16.7 0.3-33.3 0.5-50 0-17.6-0.4-31.9-15.7-32-33.9-0.2-38.6-0.1-77.3-0.1-115.9 0.1-6 3.5-9.8 8.5-9.6 4.7 0.2 7.7 3.9 7.8 9.8 0 9.8 0 19.6 0 29.8 12.9 0 25.6 0 38.7 0zm-94.7 108.1c1.8 7.2-1.2 11.4-8.1 11.8-11.6 0.6-22.6-0.3-31.8-8.7-7.5-6.8-11.1-15.5-11.2-25.3-0.3-38.8-0.2-77.6-0.1-116.4 0-5.2 2.4-8.4 6.8-8.9 4.3-0.5 7.6 1.2 9 5.4 0.6 1.7 0.4 3.6 0.4 5.5 0 37.1 0 74.3 0 111.4 0 13.8 6.6 20.1 20.6 20.4 4.2 0 8.4 1.2 12.5 2.1 0.7 0.2 1.1 1.5 1.9 2.7z"/></svg>
